modules/hawcons-filled/icons/icon-25-hockey-stick.svg

<?xml version="1.0" encoding="UTF-8" standalone="no"?>
<svg width="32px" height="32px" viewBox="0 0 32 32" version="1.1" xmlns="http://www.w3.org/2000/svg" xmlns:xlink="http://www.w3.org/1999/xlink" xmlns:sketch="http://www.bohemiancoding.com/sketch/ns">
    <!-- Generator: Sketch 3.0.3 (7891) - http://www.bohemiancoding.com/sketch -->
    <title>icon 25 hockey stick</title>
    <desc>Created with Sketch.</desc>
    <defs></defs>
    <g id="Page-1" stroke="none" stroke-width="1" fill="none" fill-rule="evenodd" sketch:type="MSPage">
        <g id="icon-25-hockey-stick" sketch:type="MSArtboardGroup" fill="#929292">
            <path d="M22.5158276,12.8795198 L16.4433876,25.1044865 C16.2035453,25.5873343 15.5536144,25.9971093 15.0029699,25.9971094 L8.99703014,25.9971098 C8.45303631,25.9971098 8,25.5498617 8,24.9981533 L8,23.9960664 C8,23.4397702 8.44358641,22.9971098 8.99077797,22.9971098 L14,22.9971098 L19.7747402,11.482866 L22.5158276,12.8795198 L22.5158276,12.8795198 L22.5158276,12.8795198 Z M22.960716,11.9838755 L24.4475951,8.99050746 C24.7201172,8.44186909 24.5026078,7.77630014 23.9558731,7.50094565 L23.1973862,7.11894538 C22.6532935,6.84492148 21.9925622,7.06075495 21.7231009,7.59803332 L20.2230568,10.5889685 L22.960716,11.9838755 L22.960716,11.9838755 Z M12,20.9971098 C12.8284271,20.9971098 13.5,20.325537 13.5,19.4971098 C13.5,18.6686827 12.8284271,17.9971098 12,17.9971098 C11.1715729,17.9971098 10.5,18.6686827 10.5,19.4971098 C10.5,20.325537 11.1715729,20.9971098 12,20.9971098 L12,20.9971098 Z" id="hockey-stick" sketch:type="MSShapeGroup"></path>
        </g>
    </g>
</svg>

<svg width="32" height="32" xmlns="http://www.w3.org/2000/svg"><path d="M22.516 12.88l-6.073 12.224c-.24.483-.89.893-1.44.893H8.997c-.544 0-.997-.447-.997-.999v-1.002c0-.556.444-.999.99-.999H14l5.775-11.514 2.74 1.397zm.445-.896l1.487-2.993a1.112 1.112 0 0 0-.492-1.49l-.759-.382a1.096 1.096 0 0 0-1.474.479l-1.5 2.991 2.738 1.395zM12 20.997a1.5 1.5 0 1 0 0-3 1.5 1.5 0 0 0 0 3z" fill="#929292" fill-rule="evenodd"/></svg>
